images/16758989.svg

<?xml version="1.0" encoding="UTF-8"?>
<svg xmlns="http://www.w3.org/2000/svg" xmlns:xlink="http://www.w3.org/1999/xlink" width="300pt" height="300pt" viewBox="0 0 300 300" version="1.1">
<defs>
<g>
<symbol overflow="visible" id="glyph0-0">
<path style="stroke:none;" d="M 0.546875 1.9375 L 0.546875 -7.75 L 6.046875 -7.75 L 6.046875 1.9375 Z M 1.171875 1.328125 L 5.4375 1.328125 L 5.4375 -7.140625 L 1.171875 -7.140625 Z M 1.171875 1.328125 "/>
</symbol>
<symbol overflow="visible" id="glyph0-1">
<path style="stroke:none;" d="M 4.328125 -7.28125 C 3.546875 -7.28125 2.921875 -6.984375 2.453125 -6.390625 C 1.992188 -5.804688 1.765625 -5.007812 1.765625 -4 C 1.765625 -2.988281 1.992188 -2.1875 2.453125 -1.59375 C 2.921875 -1.007812 3.546875 -0.71875 4.328125 -0.71875 C 5.117188 -0.71875 5.742188 -1.007812 6.203125 -1.59375 C 6.660156 -2.1875 6.890625 -2.988281 6.890625 -4 C 6.890625 -5.007812 6.660156 -5.804688 6.203125 -6.390625 C 5.742188 -6.984375 5.117188 -7.28125 4.328125 -7.28125 Z M 4.328125 -8.171875 C 5.453125 -8.171875 6.351562 -7.789062 7.03125 -7.03125 C 7.707031 -6.28125 8.046875 -5.269531 8.046875 -4 C 8.046875 -2.738281 7.707031 -1.726562 7.03125 -0.96875 C 6.351562 -0.21875 5.453125 0.15625 4.328125 0.15625 C 3.203125 0.15625 2.300781 -0.21875 1.625 -0.96875 C 0.957031 -1.71875 0.625 -2.726562 0.625 -4 C 0.625 -5.269531 0.957031 -6.28125 1.625 -7.03125 C 2.300781 -7.789062 3.203125 -8.171875 4.328125 -8.171875 Z M 4.328125 -8.171875 "/>
</symbol>
<symbol overflow="visible" id="glyph0-2">
<path style="stroke:none;" d="M 1.078125 -8.015625 L 2.546875 -8.015625 L 6.09375 -1.3125 L 6.09375 -8.015625 L 7.15625 -8.015625 L 7.15625 0 L 5.6875 0 L 2.125 -6.703125 L 2.125 0 L 1.078125 0 Z M 1.078125 -8.015625 "/>
</symbol>
</g>
</defs>
<g id="surface51141">
<rect x="0" y="0" width="300" height="300" style="fill:rgb(100%,100%,100%);fill-opacity:1;stroke:none;"/>
<path style="fill:none;stroke-width:1.2;stroke-linecap:butt;stroke-linejoin:miter;stroke:rgb(0%,0%,0%);stroke-opacity:1;stroke-miterlimit:10;" d="M 264.75 190.902344 L 254.945312 200.9375 "/>
<path style="fill:none;stroke-width:1.2;stroke-linecap:butt;stroke-linejoin:miter;stroke:rgb(100%,0%,0%);stroke-opacity:1;stroke-miterlimit:10;" d="M 254.945312 200.9375 L 245.144531 210.972656 "/>
<path style="fill:none;stroke-width:1.2;stroke-linecap:butt;stroke-linejoin:miter;stroke:rgb(100%,0%,0%);stroke-opacity:1;stroke-miterlimit:10;" d="M 245.144531 210.972656 L 231.550781 207.5 "/>
<path style="fill:none;stroke-width:1.2;stroke-linecap:butt;stroke-linejoin:miter;stroke:rgb(0%,0%,0%);stroke-opacity:1;stroke-miterlimit:10;" d="M 231.550781 207.5 L 217.960938 204.027344 "/>
<path style=" stroke:none;fill-rule:nonzero;fill:rgb(100%,100%,100%);fill-opacity:1;" d="M 241.144531 204.472656 L 250.144531 204.472656 L 250.144531 217.472656 L 241.144531 217.472656 Z M 241.144531 204.472656 "/>
<g style="fill:rgb(100%,0%,0%);fill-opacity:1;">
  <use xlink:href="#glyph0-1" x="241.144531" y="214.374023"/>
</g>
<path style="fill:none;stroke-width:1.2;stroke-linecap:butt;stroke-linejoin:miter;stroke:rgb(0%,0%,0%);stroke-opacity:1;stroke-miterlimit:10;" d="M 217.960938 204.027344 L 210.382812 177.015625 "/>
<path style="fill:none;stroke-width:1.2;stroke-linecap:butt;stroke-linejoin:miter;stroke:rgb(0%,0%,0%);stroke-opacity:1;stroke-miterlimit:10;" d="M 210.847656 203.109375 L 204.785156 181.5 "/>
<path style="fill:none;stroke-width:1.2;stroke-linecap:butt;stroke-linejoin:miter;stroke:rgb(0%,0%,0%);stroke-opacity:1;stroke-miterlimit:10;" d="M 198.355469 224.097656 L 217.960938 204.027344 "/>
<path style="fill:none;stroke-width:1.2;stroke-linecap:butt;stroke-linejoin:miter;stroke:rgb(0%,0%,0%);stroke-opacity:1;stroke-miterlimit:10;" d="M 210.382812 177.015625 L 183.199219 170.070312 "/>
<path style="fill:none;stroke-width:1.2;stroke-linecap:butt;stroke-linejoin:miter;stroke:rgb(0%,0%,0%);stroke-opacity:1;stroke-miterlimit:10;" d="M 183.199219 170.070312 L 163.59375 190.140625 "/>
<path style="fill:none;stroke-width:1.2;stroke-linecap:butt;stroke-linejoin:miter;stroke:rgb(0%,0%,0%);stroke-opacity:1;stroke-miterlimit:10;" d="M 185.960938 176.691406 L 170.273438 192.746094 "/>
<path style="fill:none;stroke-width:1.2;stroke-linecap:butt;stroke-linejoin:miter;stroke:rgb(0%,0%,0%);stroke-opacity:1;stroke-miterlimit:10;" d="M 163.59375 190.140625 L 171.171875 217.152344 "/>
<path style="fill:none;stroke-width:1.2;stroke-linecap:butt;stroke-linejoin:miter;stroke:rgb(0%,0%,0%);stroke-opacity:1;stroke-miterlimit:10;" d="M 163.59375 190.140625 L 136.40625 183.195312 "/>
<path style="fill:none;stroke-width:1.2;stroke-linecap:butt;stroke-linejoin:miter;stroke:rgb(0%,0%,0%);stroke-opacity:1;stroke-miterlimit:10;" d="M 171.171875 217.152344 L 198.355469 224.097656 "/>
<path style="fill:none;stroke-width:1.2;stroke-linecap:butt;stroke-linejoin:miter;stroke:rgb(0%,0%,0%);stroke-opacity:1;stroke-miterlimit:10;" d="M 175.523438 211.453125 L 197.269531 217.007812 "/>
<path style="fill:none;stroke-width:1.2;stroke-linecap:butt;stroke-linejoin:miter;stroke:rgb(0%,0%,0%);stroke-opacity:1;stroke-miterlimit:10;" d="M 136.40625 183.195312 L 128.828125 156.179688 "/>
<path style="fill:none;stroke-width:1.2;stroke-linecap:butt;stroke-linejoin:miter;stroke:rgb(0%,0%,0%);stroke-opacity:1;stroke-miterlimit:10;" d="M 128.828125 156.179688 L 148.4375 136.113281 "/>
<path style="fill:none;stroke-width:1.2;stroke-linecap:butt;stroke-linejoin:miter;stroke:rgb(0%,0%,100%);stroke-opacity:1;stroke-miterlimit:10;" d="M 101.644531 149.238281 L 115.238281 152.710938 "/>
<path style="fill:none;stroke-width:1.2;stroke-linecap:butt;stroke-linejoin:miter;stroke:rgb(0%,0%,0%);stroke-opacity:1;stroke-miterlimit:10;" d="M 115.238281 152.710938 L 128.828125 156.179688 "/>
<path style="fill:none;stroke-width:1.2;stroke-linecap:butt;stroke-linejoin:miter;stroke:rgb(0%,0%,0%);stroke-opacity:1;stroke-miterlimit:10;" d="M 148.4375 136.113281 L 175.621094 143.054688 "/>
<path style="fill:none;stroke-width:1.2;stroke-linecap:butt;stroke-linejoin:miter;stroke:rgb(0%,0%,0%);stroke-opacity:1;stroke-miterlimit:10;" d="M 152.789062 130.410156 L 174.535156 135.964844 "/>
<path style="fill:none;stroke-width:1.2;stroke-linecap:butt;stroke-linejoin:miter;stroke:rgb(0%,0%,0%);stroke-opacity:1;stroke-miterlimit:10;" d="M 140.859375 109.097656 L 148.4375 136.113281 "/>
<path style="fill:none;stroke-width:1.2;stroke-linecap:butt;stroke-linejoin:miter;stroke:rgb(0%,0%,0%);stroke-opacity:1;stroke-miterlimit:10;" d="M 175.621094 143.054688 L 195.226562 122.984375 "/>
<path style="fill:none;stroke-width:1.2;stroke-linecap:butt;stroke-linejoin:miter;stroke:rgb(0%,0%,0%);stroke-opacity:1;stroke-miterlimit:10;" d="M 195.226562 122.984375 L 187.648438 95.972656 "/>
<path style="fill:none;stroke-width:1.2;stroke-linecap:butt;stroke-linejoin:miter;stroke:rgb(0%,0%,0%);stroke-opacity:1;stroke-miterlimit:10;" d="M 188.113281 122.066406 L 182.050781 100.457031 "/>
<path style="fill:none;stroke-width:1.2;stroke-linecap:butt;stroke-linejoin:miter;stroke:rgb(0%,0%,0%);stroke-opacity:1;stroke-miterlimit:10;" d="M 195.226562 122.984375 L 208.816406 126.457031 "/>
<path style="fill:none;stroke-width:1.2;stroke-linecap:butt;stroke-linejoin:miter;stroke:rgb(100%,0%,0%);stroke-opacity:1;stroke-miterlimit:10;" d="M 208.816406 126.457031 L 222.410156 129.929688 "/>
<path style="fill:none;stroke-width:1.2;stroke-linecap:butt;stroke-linejoin:miter;stroke:rgb(0%,0%,0%);stroke-opacity:1;stroke-miterlimit:10;" d="M 187.648438 95.972656 L 160.464844 89.027344 "/>
<path style="fill:none;stroke-width:1.2;stroke-linecap:butt;stroke-linejoin:miter;stroke:rgb(0%,0%,0%);stroke-opacity:1;stroke-miterlimit:10;" d="M 187.648438 95.972656 L 197.449219 85.9375 "/>
<path style="fill:none;stroke-width:1.2;stroke-linecap:butt;stroke-linejoin:miter;stroke:rgb(100%,0%,0%);stroke-opacity:1;stroke-miterlimit:10;" d="M 197.449219 85.9375 L 207.253906 75.902344 "/>
<path style="fill:none;stroke-width:1.2;stroke-linecap:butt;stroke-linejoin:miter;stroke:rgb(0%,0%,0%);stroke-opacity:1;stroke-miterlimit:10;" d="M 160.464844 89.027344 L 140.859375 109.097656 "/>
<path style="fill:none;stroke-width:1.2;stroke-linecap:butt;stroke-linejoin:miter;stroke:rgb(0%,0%,0%);stroke-opacity:1;stroke-miterlimit:10;" d="M 163.226562 95.648438 L 147.539062 111.703125 "/>
<path style="fill:none;stroke-width:1.2;stroke-linecap:butt;stroke-linejoin:miter;stroke:rgb(0%,0%,0%);stroke-opacity:1;stroke-miterlimit:10;" d="M 140.859375 109.097656 L 113.671875 102.152344 "/>
<path style="fill:none;stroke-width:1.2;stroke-linecap:butt;stroke-linejoin:miter;stroke:rgb(0%,0%,0%);stroke-opacity:1;stroke-miterlimit:10;" d="M 113.671875 102.152344 L 94.066406 122.222656 "/>
<path style="fill:none;stroke-width:1.2;stroke-linecap:butt;stroke-linejoin:miter;stroke:rgb(0%,0%,0%);stroke-opacity:1;stroke-miterlimit:10;" d="M 94.066406 122.222656 L 97.855469 135.730469 "/>
<path style="fill:none;stroke-width:1.2;stroke-linecap:butt;stroke-linejoin:miter;stroke:rgb(0%,0%,100%);stroke-opacity:1;stroke-miterlimit:10;" d="M 97.855469 135.730469 L 101.644531 149.238281 "/>
<path style="fill:none;stroke-width:1.2;stroke-linecap:butt;stroke-linejoin:miter;stroke:rgb(0%,0%,100%);stroke-opacity:1;stroke-miterlimit:10;" d="M 101.644531 149.238281 L 91.84375 159.273438 "/>
<path style="fill:none;stroke-width:1.2;stroke-linecap:butt;stroke-linejoin:miter;stroke:rgb(0%,0%,0%);stroke-opacity:1;stroke-miterlimit:10;" d="M 91.84375 159.273438 L 82.039062 169.308594 "/>
<path style=" stroke:none;fill-rule:nonzero;fill:rgb(100%,100%,100%);fill-opacity:1;" d="M 97.644531 142.738281 L 105.644531 142.738281 L 105.644531 155.738281 L 97.644531 155.738281 Z M 97.644531 142.738281 "/>
<g style="fill:rgb(0%,0%,100%);fill-opacity:1;">
  <use xlink:href="#glyph0-2" x="97.644531" y="152.639648"/>
</g>
<path style="fill:none;stroke-width:1.2;stroke-linecap:butt;stroke-linejoin:miter;stroke:rgb(0%,0%,0%);stroke-opacity:1;stroke-miterlimit:10;" d="M 78.863281 170.199219 L 82.652344 183.707031 "/>
<path style="fill:none;stroke-width:1.2;stroke-linecap:butt;stroke-linejoin:miter;stroke:rgb(100%,0%,0%);stroke-opacity:1;stroke-miterlimit:10;" d="M 82.652344 183.707031 L 86.441406 197.214844 "/>
<path style="fill:none;stroke-width:1.2;stroke-linecap:butt;stroke-linejoin:miter;stroke:rgb(0%,0%,0%);stroke-opacity:1;stroke-miterlimit:10;" d="M 85.21875 168.414062 L 89.007812 181.921875 "/>
<path style="fill:none;stroke-width:1.2;stroke-linecap:butt;stroke-linejoin:miter;stroke:rgb(100%,0%,0%);stroke-opacity:1;stroke-miterlimit:10;" d="M 89.007812 181.921875 L 92.796875 195.429688 "/>
<path style="fill:none;stroke-width:1.2;stroke-linecap:butt;stroke-linejoin:miter;stroke:rgb(0%,0%,0%);stroke-opacity:1;stroke-miterlimit:10;" d="M 82.039062 169.308594 L 68.449219 165.835938 "/>
<path style="fill:none;stroke-width:1.2;stroke-linecap:butt;stroke-linejoin:miter;stroke:rgb(100%,0%,0%);stroke-opacity:1;stroke-miterlimit:10;" d="M 68.449219 165.835938 L 54.855469 162.363281 "/>
<path style=" stroke:none;fill-rule:nonzero;fill:rgb(100%,100%,100%);fill-opacity:1;" d="M 85.617188 189.820312 L 94.617188 189.820312 L 94.617188 202.820312 L 85.617188 202.820312 Z M 85.617188 189.820312 "/>
<g style="fill:rgb(100%,0%,0%);fill-opacity:1;">
  <use xlink:href="#glyph0-1" x="85.617188" y="199.72168"/>
</g>
<path style="fill:none;stroke-width:1.2;stroke-linecap:butt;stroke-linejoin:miter;stroke:rgb(100%,0%,0%);stroke-opacity:1;stroke-miterlimit:10;" d="M 54.855469 162.363281 L 45.054688 172.398438 "/>
<path style="fill:none;stroke-width:1.2;stroke-linecap:butt;stroke-linejoin:miter;stroke:rgb(0%,0%,0%);stroke-opacity:1;stroke-miterlimit:10;" d="M 45.054688 172.398438 L 35.25 182.433594 "/>
<path style=" stroke:none;fill-rule:nonzero;fill:rgb(100%,100%,100%);fill-opacity:1;" d="M 50.855469 155.863281 L 59.855469 155.863281 L 59.855469 168.863281 L 50.855469 168.863281 Z M 50.855469 155.863281 "/>
<g style="fill:rgb(100%,0%,0%);fill-opacity:1;">
  <use xlink:href="#glyph0-1" x="50.855469" y="165.764648"/>
</g>
<path style="fill:none;stroke-width:1.2;stroke-linecap:butt;stroke-linejoin:miter;stroke:rgb(100%,0%,0%);stroke-opacity:1;stroke-miterlimit:10;" d="M 207.253906 75.902344 L 220.84375 79.375 "/>
<path style="fill:none;stroke-width:1.2;stroke-linecap:butt;stroke-linejoin:miter;stroke:rgb(0%,0%,0%);stroke-opacity:1;stroke-miterlimit:10;" d="M 220.84375 79.375 L 234.4375 82.847656 "/>
<path style=" stroke:none;fill-rule:nonzero;fill:rgb(100%,100%,100%);fill-opacity:1;" d="M 203.253906 69.402344 L 212.253906 69.402344 L 212.253906 82.402344 L 203.253906 82.402344 Z M 203.253906 69.402344 "/>
<g style="fill:rgb(100%,0%,0%);fill-opacity:1;">
  <use xlink:href="#glyph0-1" x="203.253906" y="79.303711"/>
</g>
<path style="fill:none;stroke-width:1.2;stroke-linecap:butt;stroke-linejoin:miter;stroke:rgb(100%,0%,0%);stroke-opacity:1;stroke-miterlimit:10;" d="M 222.410156 129.929688 L 226.199219 143.4375 "/>
<path style="fill:none;stroke-width:1.2;stroke-linecap:butt;stroke-linejoin:miter;stroke:rgb(0%,0%,0%);stroke-opacity:1;stroke-miterlimit:10;" d="M 226.199219 143.4375 L 229.988281 156.945312 "/>
<path style=" stroke:none;fill-rule:nonzero;fill:rgb(100%,100%,100%);fill-opacity:1;" d="M 218.410156 123.429688 L 227.410156 123.429688 L 227.410156 136.429688 L 218.410156 136.429688 Z M 218.410156 123.429688 "/>
<g style="fill:rgb(100%,0%,0%);fill-opacity:1;">
  <use xlink:href="#glyph0-1" x="218.410156" y="133.331055"/>
</g>
</g>
</svg>

<svg xmlns="http://www.w3.org/2000/svg" xmlns:xlink="http://www.w3.org/1999/xlink" width="300pt" height="300pt" viewBox="0 0 300 300"><defs><symbol overflow="visible"><path d="M.547 1.938V-7.75h5.5v9.688zm.625-.61h4.266v-8.47H1.171zm0 0"/></symbol><symbol overflow="visible" id="a"><path d="M4.328-7.28c-.78 0-1.406.296-1.875.89-.46.585-.687 1.382-.687 2.39 0 1.012.226 1.813.687 2.406.47.586 1.094.875 1.875.875.79 0 1.414-.288 1.875-.874.457-.593.688-1.394.688-2.406 0-1.008-.23-1.805-.687-2.39-.46-.594-1.086-.89-1.875-.89zm0-.892c1.125 0 2.024.383 2.703 1.14C7.708-6.28 8.048-5.27 8.048-4c0 1.262-.34 2.273-1.016 3.03C6.353-.22 5.454.157 4.33.157S2.3-.22 1.625-.97c-.668-.75-1-1.757-1-3.03 0-1.27.332-2.28 1-3.03.676-.76 1.578-1.142 2.703-1.142zm0 0"/></symbol><symbol overflow="visible" id="b"><path d="M1.078-8.016h1.47l3.546 6.704v-6.704h1.062V0H5.688L2.124-6.703V0H1.078zm0 0"/></symbol></defs><g><path fill="#fff" d="M0 0h300v300H0z"/><path d="M264.75 190.902l-9.805 10.036" stroke-width="1.2" stroke="#000" stroke-miterlimit="10" fill="none"/><path d="M254.945 200.938l-9.8 10.035M245.145 210.973L231.55 207.5" stroke-width="1.2" stroke="#f00" stroke-miterlimit="10" fill="none"/><path d="M231.55 207.5l-13.59-3.473" stroke-width="1.2" stroke="#000" stroke-miterlimit="10" fill="none"/><path d="M241.145 204.473h9v13h-9zm0 0" fill="#fff"/><use xlink:href="#a" x="241.145" y="214.374" fill="#f00"/><path d="M217.96 204.027l-7.577-27.01M210.848 203.11l-6.063-21.61M198.355 224.098l19.606-20.07M210.383 177.016L183.2 170.07M183.2 170.07l-19.606 20.07M185.96 176.69l-15.687 16.056M163.594 190.14l7.578 27.012M163.594 190.14l-27.188-6.945M171.172 217.152l27.183 6.946M175.523 211.453l21.747 5.555M136.406 183.195l-7.578-27.015M128.828 156.18l19.61-20.067" stroke-width="1.2" stroke="#000" stroke-miterlimit="10" fill="none"/><path d="M101.645 149.238l13.593 3.473" stroke-width="1.2" stroke="#00f" stroke-miterlimit="10" fill="none"/><path d="M115.238 152.71l13.59 3.47M148.438 136.113l27.183 6.942M152.79 130.41l21.745 5.555M140.86 109.098l7.577 27.015M175.62 143.055l19.607-20.07M195.227 122.984l-7.58-27.01M188.113 122.066l-6.062-21.61M195.227 122.984l13.59 3.473" stroke-width="1.2" stroke="#000" stroke-miterlimit="10" fill="none"/><path d="M208.816 126.457l13.594 3.473" stroke-width="1.2" stroke="#f00" stroke-miterlimit="10" fill="none"/><path d="M187.648 95.973l-27.183-6.946M187.648 95.973l9.8-10.035" stroke-width="1.2" stroke="#000" stroke-miterlimit="10" fill="none"/><path d="M197.45 85.938l9.804-10.036" stroke-width="1.2" stroke="#f00" stroke-miterlimit="10" fill="none"/><path d="M160.465 89.027l-19.606 20.07M163.227 95.648l-15.688 16.055M140.86 109.098l-27.188-6.946M113.672 102.152l-19.606 20.07M94.066 122.223l3.79 13.507" stroke-width="1.2" stroke="#000" stroke-miterlimit="10" fill="none"/><path d="M97.855 135.73l3.79 13.508M101.645 149.238l-9.8 10.035" stroke-width="1.2" stroke="#00f" stroke-miterlimit="10" fill="none"/><path d="M91.844 159.273L82.04 169.31" stroke-width="1.2" stroke="#000" stroke-miterlimit="10" fill="none"/><path d="M97.645 142.738h8v13h-8zm0 0" fill="#fff"/><use xlink:href="#b" x="97.645" y="152.64" fill="#00f"/><path d="M78.863 170.2l3.79 13.507" stroke-width="1.2" stroke="#000" stroke-miterlimit="10" fill="none"/><path d="M82.652 183.707l3.79 13.508" stroke-width="1.2" stroke="#f00" stroke-miterlimit="10" fill="none"/><path d="M85.22 168.414l3.788 13.508" stroke-width="1.2" stroke="#000" stroke-miterlimit="10" fill="none"/><path d="M89.008 181.922l3.79 13.508" stroke-width="1.2" stroke="#f00" stroke-miterlimit="10" fill="none"/><path d="M82.04 169.31l-13.59-3.474" stroke-width="1.2" stroke="#000" stroke-miterlimit="10" fill="none"/><path d="M68.45 165.836l-13.595-3.473" stroke-width="1.2" stroke="#f00" stroke-miterlimit="10" fill="none"/><path d="M85.617 189.82h9v13h-9zm0 0" fill="#fff"/><use xlink:href="#a" x="85.617" y="199.722" fill="#f00"/><path d="M54.855 162.363l-9.8 10.035" stroke-width="1.2" stroke="#f00" stroke-miterlimit="10" fill="none"/><path d="M45.055 172.398l-9.805 10.036" stroke-width="1.2" stroke="#000" stroke-miterlimit="10" fill="none"/><path d="M50.855 155.863h9v13h-9zm0 0" fill="#fff"/><use xlink:href="#a" x="50.855" y="165.765" fill="#f00"/><path d="M207.254 75.902l13.59 3.473" stroke-width="1.2" stroke="#f00" stroke-miterlimit="10" fill="none"/><path d="M220.844 79.375l13.594 3.473" stroke-width="1.2" stroke="#000" stroke-miterlimit="10" fill="none"/><path d="M203.254 69.402h9v13h-9zm0 0" fill="#fff"/><use xlink:href="#a" x="203.254" y="79.304" fill="#f00"/><path d="M222.41 129.93l3.79 13.507" stroke-width="1.2" stroke="#f00" stroke-miterlimit="10" fill="none"/><path d="M226.2 143.438l3.788 13.507" stroke-width="1.2" stroke="#000" stroke-miterlimit="10" fill="none"/><path d="M218.41 123.43h9v13h-9zm0 0" fill="#fff"/><use xlink:href="#a" x="218.41" y="133.331" fill="#f00"/></g></svg>
